X:198
T:Temple House
O:scotland
R:Jig
M:6/8
L:1/8
K:Em
B,|EFE G2E|B2E G2E|DED F2D|A2D F2D|
EFE G2E|B2E G2E|BcB cBA|BGE E2:|
f|gbg ege|gbg ege|faf dfd|faf def|
gbg ege|gbg ege|gbg faf|bge e2f|
gbg ege|gbg ege|faf dfd|faf def|
gfe agf|bag fed|BcB cBA|BGE E2||
